SVG_Azure_Grouped/Application/Application Group.svg

<?xml version="1.0" encoding="UTF-8" standalone="no"?>
<!-- Generated by Microsoft Visio, SVG Export Application Group.svg Page-1 -->

<svg
   xmlns:dc="http://purl.org/dc/elements/1.1/"
   xmlns:cc="http://creativecommons.org/ns#"
   xmlns:rdf="http://www.w3.org/1999/02/22-rdf-syntax-ns#"
   xmlns:svg="http://www.w3.org/2000/svg"
   xmlns="http://www.w3.org/2000/svg"
   xmlns:sodipodi="http://sodipodi.sourceforge.net/DTD/sodipodi-0.dtd"
   xmlns:inkscape="http://www.inkscape.org/namespaces/inkscape"
   width="0.78739846in"
   height="0.78739846in"
   viewBox="0 0 56.692597 56.693"
   xml:space="preserve"
   class="st3"
   version="1.1"
   id="svg34"
   sodipodi:docname="Application Group.svg"
   style="font-size:12px;overflow:visible;color-interpolation-filters:sRGB;fill:none;fill-rule:evenodd;stroke-linecap:square;stroke-miterlimit:3"
   inkscape:version="0.92.5 (2060ec1f9f, 2020-04-08)"><metadata
   id="metadata38"><rdf:RDF><cc:Work
       rdf:about=""><dc:format>image/svg+xml</dc:format><dc:type
         rdf:resource="http://purl.org/dc/dcmitype/StillImage" /></cc:Work></rdf:RDF></metadata><sodipodi:namedview
   pagecolor="#ffffff"
   bordercolor="#666666"
   borderopacity="1"
   objecttolerance="10"
   gridtolerance="10"
   guidetolerance="10"
   inkscape:pageopacity="0"
   inkscape:pageshadow="2"
   inkscape:window-width="640"
   inkscape:window-height="480"
   id="namedview36"
   showgrid="false"
   inkscape:zoom="1.4193119"
   inkscape:cx="37.795128"
   inkscape:cy="37.784457"
   inkscape:window-x="0"
   inkscape:window-y="0"
   inkscape:window-maximized="0"
   inkscape:current-layer="svg34" />
	<style
   type="text/css"
   id="style2">
	<![CDATA[
		.st1 {fill:url(#grad0-6);stroke:none;stroke-linecap:butt;stroke-width:34}
		.st2 {fill:#ffffff;stroke:none;stroke-linecap:butt;stroke-width:34}
		.st3 {fill:none;fill-rule:evenodd;font-size:12px;overflow:visible;stroke-linecap:square;stroke-miterlimit:3}
	]]>
	</style>

	<defs
   id="Patterns_And_Gradients">
		<linearGradient
   id="grad0-6"
   x1="0"
   y1="68.015697"
   x2="56.693001"
   y2="68.015697"
   gradientUnits="userSpaceOnUse">
			<stop
   offset="0"
   stop-color="#005ba1"
   stop-opacity="1"
   id="stop4" />
			<stop
   offset="0.17"
   stop-color="#0063ae"
   stop-opacity="1"
   id="stop6" />
			<stop
   offset="0.575"
   stop-color="#0072ca"
   stop-opacity="1"
   id="stop8" />
			<stop
   offset="0.815"
   stop-color="#0078d4"
   stop-opacity="1"
   id="stop10" />
		</linearGradient>
	</defs>
	<g
   id="g32"
   transform="translate(-34.000441,-33.999997)">
		<title
   id="title14">Page-1</title>
		<g
   id="group14537-1"
   transform="translate(34,-34.0157)">
			<title
   id="title16">Application Group.14537</title>
			<g
   id="group14538-2">
				<title
   id="title18">Application group</title>
				<g
   id="shape14539-3">
					<title
   id="title20">Sheet.14539</title>
					<circle
   cx="28.3465"
   cy="96.362198"
   class="st1"
   id="ellipse22"
   r="28.3465"
   style="fill:url(#grad0-6);stroke:none;stroke-width:34;stroke-linecap:butt" />
				</g>
				<g
   id="shape14540-7"
   transform="translate(14.7402,-14.7402)">
					<title
   id="title25">Sheet.14540</title>
					<path
   d="m 9.52,116.54 h 8.17 v 8.17 H 9.52 Z M 0,105.66 H 8.16 V 97.5 H 1.14 A 1.13719,1.13719 -180 0 0 0,98.64 Z m 1.14,19.05 h 7.02 v -8.17 H 0 v 7.03 a 1.13719,1.13719 -180 0 0 1.14,1.14 z M 0,115.18 h 8.16 v -8.16 H 0 Z m 19.05,9.53 h 7.02 a 1.13719,1.13719 -180 0 0 1.14,-1.14 v -7.03 h -8.16 z m -9.53,-9.53 h 8.17 v -8.16 H 9.52 Z m 9.53,0 h 8.16 v -8.16 h -8.16 z m 0,-17.67 v 8.15 h 8.16 V 98.64 A 1.13719,1.13719 -180 0 0 26.07,97.5 Z m -9.53,8.15 h 8.17 V 97.5 H 9.52 Z"
   class="st2"
   id="path27"
   inkscape:connector-curvature="0"
   style="fill:#ffffff;stroke:none;stroke-width:34;stroke-linecap:butt" />
				</g>
			</g>
		</g>
	</g>
</svg>

<?xml version="1.0" encoding="UTF-8" standalone="no"?>
<!DOCTYPE svg PUBLIC "-//W3C//DTD SVG 1.1//EN" "http://www.w3.org/Graphics/SVG/1.1/DTD/svg11.dtd">
<!-- Generated by Microsoft Visio, SVG Export Application Group.svg Page-1 -->
<svg xmlns="http://www.w3.org/2000/svg" xmlns:xlink="http://www.w3.org/1999/xlink" xmlns:ev="http://www.w3.org/2001/xml-events"
		width="1.73185in" height="1.73206in" viewBox="0 0 124.693 124.709" xml:space="preserve" color-interpolation-filters="sRGB"
		class="st3">
	<style type="text/css">
	<![CDATA[
		.st1 {fill:url(#grad0-6);stroke:none;stroke-linecap:butt;stroke-width:34}
		.st2 {fill:#ffffff;stroke:none;stroke-linecap:butt;stroke-width:34}
		.st3 {fill:none;fill-rule:evenodd;font-size:12px;overflow:visible;stroke-linecap:square;stroke-miterlimit:3}
	]]>
	</style>

	<defs id="Patterns_And_Gradients">
		<linearGradient id="grad0-6" x1="0" y1="0" x2="1" y2="0" gradientTransform="rotate(-90 0.5 0.5)">
			<stop offset="0" stop-color="#005ba1" stop-opacity="1"/>
			<stop offset="0.17" stop-color="#0063ae" stop-opacity="1"/>
			<stop offset="0.575" stop-color="#0072ca" stop-opacity="1"/>
			<stop offset="0.815" stop-color="#0078d4" stop-opacity="1"/>
		</linearGradient>
	</defs>
	<g>
		<title>Page-1</title>
		<g id="group14180-1" transform="translate(34,-34.0157)">
			<title>Application Group.14180</title>
			<g id="group14181-2">
				<title>Application group</title>
				<g id="shape14182-3">
					<title>Sheet.14182</title>
					<ellipse cx="28.3465" cy="96.3622" rx="28.3465" ry="28.3465" class="st1"/>
				</g>
				<g id="shape14183-7" transform="translate(14.7402,-14.7402)">
					<title>Sheet.14183</title>
					<path d="M9.52 116.54 L17.69 116.54 L17.69 124.71 L9.52 124.71 L9.52 116.54 ZM0 105.66 L8.16 105.66 L8.16 97.5
								 L1.14 97.5 A1.13719 1.13719 -180 0 0 0 98.64 L0 105.66 ZM1.14 124.71 L8.16 124.71 L8.16 116.54 L0
								 116.54 L0 123.57 A1.13719 1.13719 -180 0 0 1.14 124.71 ZM0 115.18 L8.16 115.18 L8.16 107.02 L0 107.02
								 L0 115.18 ZM19.05 124.71 L26.07 124.71 A1.13719 1.13719 -180 0 0 27.21 123.57 L27.21 116.54 L19.05
								 116.54 L19.05 124.71 ZM9.52 115.18 L17.69 115.18 L17.69 107.02 L9.52 107.02 L9.52 115.18 ZM19.05
								 115.18 L27.21 115.18 L27.21 107.02 L19.05 107.02 L19.05 115.18 ZM19.05 97.51 L19.05 105.66 L27.21
								 105.66 L27.21 98.64 A1.13719 1.13719 -180 0 0 26.07 97.5 L19.05 97.51 ZM9.52 105.66 L17.69 105.66
								 L17.69 97.5 L9.52 97.5 L9.52 105.66 Z" class="st2"/>
				</g>
			</g>
		</g>
	</g>
</svg>
